X:1
T:Solid
C:1956 - Sonny Rollins
Z:www.realbook.site
L:1/8
M:4/4
I:linebreak $
K:Bb
V:1 treble nm=" " snm=" "
V:1
 B ||"Bb" (3d2 g2 f2 B4 | (3:2:2e2 d B/G/B- B4 | d B2 F _A2 B2 | z4 z2 z B |$"Eb7" (3_d2 g2 f2 B4 | %6
 (3:2:2e2 _d B/G/B- B4 |"Bb7" =d B2 F _A2 B2 |"G7" z2 z d z _A z A |$"C7" d>B c>B f2- fB- | %10
"F7" B G2 B d2 B>F |"Bb" A2 B2 z4 | z8 |] %13

